package/converter/svg/thin/album.svg

<svg xmlns="http://www.w3.org/2000/svg" viewBox="0 0 448 512"><!-- Font Awesome Pro 6.0.0-alpha2 by @fontawesome - https://fontawesome.com License - https://fontawesome.com/license (Commercial License) --><path d="M384 32.001H64C28.654 32.001 0 60.653 0 96.001V416.001C0 451.346 28.654 480.001 64 480.001H384C419.346 480.001 448 451.346 448 416.001V96.001C448 60.653 419.346 32.001 384 32.001ZM432 416.001C432 442.468 410.467 464.001 384 464.001H64C37.533 464.001 16 442.468 16 416.001V96.001C16 69.534 37.533 48.001 64 48.001H384C410.467 48.001 432 69.534 432 96.001V416.001ZM224 224.001C206.326 224.001 192 238.327 192 256.001C192 273.673 206.326 288.001 224 288.001S256 273.673 256 256.001C256 238.327 241.674 224.001 224 224.001ZM224 272.001C215.178 272.001 208 264.823 208 256.001S215.178 240.001 224 240.001S240 247.178 240 256.001S232.822 272.001 224 272.001ZM224 96.001C135.635 96.001 64 167.635 64 256.001S135.635 416.001 224 416.001S384 344.366 384 256.001S312.365 96.001 224 96.001ZM224 400.001C144.598 400.001 80 335.403 80 256.001S144.598 112.001 224 112.001S368 176.598 368 256.001S303.402 400.001 224 400.001Z"/></svg>

<svg xmlns="http://www.w3.org/2000/svg" viewBox="0 0 448 512"><!--! Font Awesome Pro 6.6.0 by @fontawesome - https://fontawesome.com License - https://fontawesome.com/license (Commercial License) Copyright 2024 Fonticons, Inc. --><path d="M384 48c26.5 0 48 21.5 48 48l0 320c0 26.5-21.5 48-48 48L64 464c-26.5 0-48-21.5-48-48L16 96c0-26.5 21.5-48 48-48l320 0zM64 32C28.7 32 0 60.7 0 96L0 416c0 35.3 28.7 64 64 64l320 0c35.3 0 64-28.7 64-64l0-320c0-35.3-28.7-64-64-64L64 32zm160 80a144 144 0 1 1 0 288 144 144 0 1 1 0-288zm0 304a160 160 0 1 0 0-320 160 160 0 1 0 0 320zM208 256a16 16 0 1 1 32 0 16 16 0 1 1 -32 0zm48 0a32 32 0 1 0 -64 0 32 32 0 1 0 64 0z"/></svg>
